icons/inertia-filled.svg

<svg width="256" height="256" viewBox="0 0 256 256" fill="none" xmlns="http://www.w3.org/2000/svg">
<rect width="256" height="256" rx="60" fill="#9553E9" />
<path d="M87.5484 75H33L85.7097 127.583L33 180.166H87.5484L140.258 127.583L87.5484 75Z" fill="white"/>
<path d="M169.984 75H115.436L168.145 127.583L115.436 180.166H169.984L222.694 127.583L169.984 75Z" fill="white"/>
</svg>

<svg xmlns="http://www.w3.org/2000/svg" width="256" height="256" fill="none"><rect width="256" height="256" fill="#9553E9" rx="60"/><path fill="#fff" d="M87.548 75H33l52.71 52.583L33 180.166h54.548l52.71-52.583z"/><path fill="#fff" d="M169.984 75h-54.548l52.709 52.583-52.709 52.583h54.548l52.71-52.583z"/></svg>
